_site/assets/javascript/anchor-js/docs/img/gh-link.svg

<?xml version="1.0" encoding="UTF-8" standalone="no"?>
<svg width="24px" height="12px" viewBox="0 0 24 12" version="1.1" xmlns="http://www.w3.org/2000/svg" xmlns:xlink="http://www.w3.org/1999/xlink">
    <defs></defs>
    <g id="Page-1" stroke="none" stroke-width="1" fill="none" fill-rule="evenodd">
        <g id="link" fill="#FF5231">
            <path d="M18,0 L14.765625,0 C15.890625,0.75 16.9453125,2.0859375 17.2734375,3 L17.9765625,3 C19.5,3 20.9765625,4.5 20.9765625,6 C20.9765625,7.5 19.453125,9 17.9765625,9 L13.4765625,9 C12,9 10.4765625,7.5 10.4765625,6 C10.4765625,5.4609375 10.640625,4.9453125 10.8984375,4.5 L7.6875,4.5 C7.5703125,4.9921875 7.5,5.484375 7.5,6 C7.5,9 10.4765625,12 13.4765625,12 L18,12 C21,12 24,9 24,6 C24,3 21,0 18,0 L18,0 Z M6.7265625,9 L6.0234375,9 C4.5,9 3.0234375,7.5 3.0234375,6 C3.0234375,4.5 4.546875,3 6.0234375,3 L10.5234375,3 C12,3 13.5234375,4.5 13.5234375,6 C13.5234375,6.5390625 13.359375,7.0546875 13.1015625,7.5 L16.3125,7.5 C16.4296875,7.0078125 16.5,6.515625 16.5,6 C16.5,3 13.5234375,0 10.5234375,0 L6,0 C3,0 0,3 0,6 C0,9 3,12 6,12 L9.234375,12 C8.109375,11.25 7.0546875,9.9140625 6.7265625,9 L6.7265625,9 Z" id="Shape"></path>
        </g>
    </g>
</svg>

<svg viewBox="0 0 24 12" xmlns="http://www.w3.org/2000/svg"><path d="M18 0h-3.2c1 .8 2.1 2 2.5 3h.7c1.5 0 3 1.5 3 3s-1.5 3-3 3h-4.5c-1.5 0-3-1.5-3-3 0-.5.1-1 .4-1.5H7.7L7.5 6c0 3 3 6 6 6H18c3 0 6-3 6-6s-3-6-6-6zM6.7 9H6C4.5 9 3 7.5 3 6s1.5-3 3-3h4.5c1.5 0 3 1.5 3 3 0 .5-.1 1-.4 1.5h3.2l.2-1.5c0-3-3-6-6-6H6C3 0 0 3 0 6s3 6 6 6h3.2c-1-.8-2.1-2-2.5-3z" fill="#FF5231" fill-rule="evenodd"/></svg>
